icons/file/icon_account-main_xl_white.svg

<svg width="36" height="36" viewBox="0 0 36 36" xmlns="http://www.w3.org/2000/svg"><g fill="none" fill-rule="evenodd"><path d="M0 0h36v36H0z"/><path fill="#FFF" opacity=".35" d="M10 15h15v3H10zm0-6h9v3h-9z"/><path d="M28.2 34.1H7.8c-1.5 0-2.8-1.3-2.8-2.8V3.8C5 2.3 6.3 1 7.8 1h15.3L31 8.9v22.4c0 1.6-1.3 2.8-2.8 2.8zM7.8 2C6.8 2 6 2.8 6 3.8v27.5c0 1 .8 1.8 1.8 1.8h20.4c1 0 1.8-.8 1.8-1.8v-22L22.6 2H7.8z" fill="#FFF"/><circle fill="#FFF" opacity=".3" cx="12.5" cy="24.5" r="2.5"/></g></svg>

<?xml version="1.0" encoding="UTF-8"?>
<svg width="36px" height="36px" viewBox="0 0 36 36" version="1.1" xmlns="http://www.w3.org/2000/svg" xmlns:xlink="http://www.w3.org/1999/xlink">
    <!-- Generator: Sketch 48.2 (47327) - http://www.bohemiancoding.com/sketch -->
    <title>icon_account-main_xl_white</title>
    <desc>Created with Sketch.</desc>
    <defs></defs>
    <g id="mobile" stroke="none" stroke-width="1" fill="none" fill-rule="evenodd" transform="translate(-128.000000, -153.000000)">
        <g id="Headings" transform="translate(64.000000, 77.000000)"></g>
        <g id="icon_tool_account__xl__white" transform="translate(128.000000, 153.000000)">
            <g id="ungroup">
                <rect id="Rectangle-path" x="0" y="0" width="36" height="36"></rect>
                <rect id="Rectangle-path" fill="#FFFFFF" opacity="0.35" x="10" y="15" width="15" height="3"></rect>
                <rect id="Rectangle-path" fill="#FFFFFF" opacity="0.35" x="10" y="9" width="9" height="3"></rect>
                <path d="M28.2,34.1 L7.8,34.1 C6.3,34.1 5,32.8 5,31.3 L5,3.8 C5,2.3 6.3,1 7.8,1 L23.1,1 L31,8.9 L31,31.3 C31,32.9 29.7,34.1 28.2,34.1 L28.2,34.1 Z M7.8,2 C6.8,2 6,2.8 6,3.8 L6,31.3 C6,32.3 6.8,33.1 7.8,33.1 L28.2,33.1 C29.2,33.1 30,32.3 30,31.3 L30,9.3 L22.6,2 L7.8,2 L7.8,2 Z" id="Shape" fill="#FFFFFF"></path>
                <circle id="Oval" fill="#FFFFFF" opacity="0.3" cx="12.5" cy="24.5" r="2.5"></circle>
                <g id="Group" opacity="0.3"></g>
            </g>
        </g>
    </g>
</svg>
